!!!OTL: The Blue Tail Fly (Jimmy Crack Corn)
!!!COM: Emmett, Dan
!!!ODT: 1850 (19th century)
!!!YOR: The Folksong Fake Book
!!!YOY: 2000
!!!AST: Folk song
!!!YEC: Brian Luke, 2001
**kern	**harm
*k[f#c#g#d#]	*k[f#c#g#d#]
*M4/4	*M4/4
*E:	*E:
*>A	*>A
4f#	.
=1	=1
4g#	I
4g#	.
4.e	.
8e	.
=2	=2
4d#	V7
4f#	.
4.f#	.
8f#	.
=3	=3
4f#	.
4f#	.
4d#	.
4f#	.
=4	=4
4f#	I
4e	.
4.e	.
8e	.
=5	=5
4g#	.
4g#	.
8e	.
8e	.
4e	.
=6	=6
4c#	IV
4c#	.
4.a	.
8c#	.
=7	=7
4B	V7
4d#	.
4f#	.
4a	.
=8	=8
4g#	I;
4e	.
2e	.
*>B	*>B
=9	=9
8B	I
8B	.
4e	.
4.e	.
8e	.
=10	=10
4d#	V7
4f#	.
2f#	.
=11	=11
8B	.
8B	.
4f#	.
4.f#	.
8f#	.
=12	=12
4e	I
4g#	.
2g#	.
=13	=13
8e	.
8e	.
4g#	.
4.g#	.
8g#	.
=14	=14
4a	IV
4cc#	.
4.cc#	.
8cc#	.
=15	=15
4b	V7
4b	.
4.a	.
8f#	.
=16	=16
2e	I;
4r	.
*-	*-
